X:010 
T:Barrel of Wash (reel), The
S:Donnelly < P. Nugent
F:file ID: cre.4/010barr_w
B:CRE4.147 (Bairille Braiche)
L:1/8
Q:180
M:4/4
R:reel
K:D
fe|dBBd AFAB|defd efde|faag bgaf|defd e2fe|
dBBd AFAB|defd efde|faag bgaf|edef d2:|
eg|faag bgaf|defd edBd|faag bgaf|defd e2 de|
faag bgaf|g2 fg efdB|AFF/E/F ABdf|afef d2:|

%%%

